logos/logo.svg

<?xml version="1.0" encoding="UTF-8"?>
<svg width="95px" height="88px" viewBox="0 0 95 88" version="1.1" xmlns="http://www.w3.org/2000/svg" xmlns:xlink="http://www.w3.org/1999/xlink">
    <!-- Generator: Sketch 46 (44423) - http://www.bohemiancoding.com/sketch -->
    <title>Group</title>
    <desc>Created with Sketch.</desc>
    <defs></defs>
    <g id="Logo" stroke="none" stroke-width="1" fill="none" fill-rule="evenodd">
        <g id="Open-Source-Love---Logo-variations" transform="translate(-242.000000, -97.000000)">
            <g id="Group" transform="translate(234.000000, 85.000000)">
                <path d="M55.6308199,23.3261895 C60.3235741,18.4895355 66.8924625,15.4839808 74.1632213,15.4839808 C88.4240425,15.4839808 99.9847223,27.0465472 99.9847223,41.3096958 C99.9847223,48.6212322 96.9468476,55.2231191 92.0646462,59.921614 L55.6223688,96.3638914 L19.1052519,59.8467744 L55.6283284,23.3236979 L55.6308199,23.3261895 Z" id="Combined-Shape" stroke="#960042" stroke-width="5.79310345" fill="#FF9900" stroke-linecap="round" stroke-linejoin="round"></path>
                <path d="M62.4587348,46.8987755 L92.2526182,59.7359588 L55.7295417,96.2590353 L42.9457939,66.5891706 C41.103748,67.0061507 39.1869945,67.2262813 37.2188183,67.2262813 C22.9556698,67.2262813 11.3931033,55.6656015 11.3931033,41.4047803 C11.3931033,27.1439591 22.9556698,15.5832793 37.2188183,15.5832793 C51.4819669,15.5832793 63.0445334,27.1439591 63.0445334,41.4047803 C63.0445334,43.2901301 62.8424414,45.1282865 62.4587348,46.8987755 L62.4587348,46.8987755 Z" id="Combined-Shape" stroke="#960042" stroke-width="5.79310345" fill="#FF0032" stroke-linecap="round" stroke-linejoin="round"></path>
                <rect id="Rectangle" opacity="0.200000003" x="0" y="0" width="112" height="112"></rect>
            </g>
        </g>
    </g>
</svg>

<svg xmlns="http://www.w3.org/2000/svg" width="112" height="112" viewBox="0 0 112 112"><g fill="none" fill-rule="evenodd" stroke="#960042" stroke-linecap="round" stroke-linejoin="round" stroke-width="5.79"><path fill="#F90" d="M55.63 23.33c4.7-4.84 11.26-7.85 18.53-7.85 14.26 0 25.82 11.57 25.82 25.83 0 7.32-3.03 13.92-7.92 18.62L55.62 96.36l-36.5-36.5L55.6 23.3z"/><path fill="#FF0032" d="M62.46 46.9l29.8 12.84-36.53 36.52L42.95 66.6c-1.85.4-3.76.63-5.73.63-14.26 0-25.83-11.56-25.83-25.83 0-14.26 11.56-25.82 25.82-25.82S63.04 27.14 63.04 41.4c0 1.9-.2 3.73-.58 5.5z"/></g></svg>
